build/images/icon-delivery.svg

<svg width="42" height="44" viewBox="0 0 42 44" fill="none" xmlns="http://www.w3.org/2000/svg">
<path d="M23.8341 42.2812H7.19764V11.3983H11.7766V15.8057C11.7766 16.2803 12.1614 16.6651 12.6359 16.6651C13.1105 16.6651 13.4953 16.2803 13.4953 15.8057V11.3983H25.2309V15.8057C25.2309 16.2803 25.6157 16.6651 26.0902 16.6651C26.5648 16.6651 26.9496 16.2803 26.9496 15.8057V11.3983H31.3854V20.4001C31.3854 20.8747 31.7702 21.2595 32.2448 21.2595C32.7194 21.2595 33.1042 20.8747 33.1042 20.4001V10.5389C33.1042 10.0643 32.7194 9.67957 32.2448 9.67957H26.9496V7.5497C26.9495 3.38671 23.5463 0 19.363 0C18.4053 0 17.4884 0.177547 16.6439 0.501273C15.7994 0.177547 14.8825 0 13.9247 0C9.74148 0 6.33827 3.38671 6.33827 7.5497V9.67957H1.04297C0.568422 9.67957 0.183594 10.0643 0.183594 10.5389V39.9243C0.183594 42.1716 2.01458 44 4.26511 44H26.7689C25.5087 44 24.4103 43.3069 23.8341 42.2812ZM19.363 1.71875C22.5985 1.71875 25.2308 4.33452 25.2308 7.5497V9.67957H21.5112V7.5497C21.5112 5.22027 20.4456 3.13388 18.774 1.74797C18.9678 1.72863 19.1643 1.71875 19.363 1.71875ZM16.6439 2.38348C18.5141 3.35938 19.7925 5.30896 19.7925 7.5497V9.67957H13.4953V7.5497C13.4953 5.30896 14.7737 3.35938 16.6439 2.38348ZM8.05702 7.5497C8.05702 4.33452 10.6893 1.71875 13.9247 1.71875C14.1235 1.71875 14.32 1.72863 14.5138 1.74788C12.8422 3.13388 11.7766 5.22019 11.7766 7.54961V9.67948H8.05702V7.5497ZM5.47889 42.2812H4.26511C2.9623 42.2812 1.90234 41.224 1.90234 39.9243V11.3983H5.47881V42.2812H5.47889Z" fill="#020288"/>
<path d="M38.4527 44H25.9107C24.0529 44 22.5469 42.494 22.5469 40.6362V24.8721H41.8166V40.6362C41.8166 42.494 40.3105 44 38.4527 44Z" fill="#9AF4BE"/>
<path d="M35.8651 29.987C35.3906 29.987 35.0057 29.6022 35.0057 29.1277V24.3637C35.0057 22.8139 33.7327 21.553 32.1679 21.553C30.6031 21.553 29.3301 22.8139 29.3301 24.3637V29.1277C29.3301 29.6022 28.9452 29.987 28.4707 29.987C27.9961 29.987 27.6113 29.6022 27.6113 29.1277V24.3637C27.6113 21.8661 29.6554 19.8343 32.1679 19.8343C34.6804 19.8343 36.7245 21.8662 36.7245 24.3637V29.1277C36.7245 29.6023 36.3397 29.987 35.8651 29.987Z" fill="#020288"/>
</svg>

<svg width="42" height="44" fill="none" xmlns="http://www.w3.org/2000/svg"><path d="M23.834 42.281H7.198V11.398h4.579v4.408a.86.86 0 001.718 0v-4.408h11.736v4.408a.86.86 0 001.719 0v-4.408h4.435V20.4a.86.86 0 001.72 0v-9.86a.86.86 0 00-.86-.86H26.95V7.55c0-4.162-3.404-7.55-7.587-7.55-.958 0-1.875.178-2.72.501A7.582 7.582 0 0013.926 0C9.74 0 6.338 3.387 6.338 7.55v2.13H1.043a.86.86 0 00-.86.859v29.385A4.083 4.083 0 004.266 44H26.77a3.363 3.363 0 01-2.935-1.719zM19.363 1.72c3.236 0 5.868 2.616 5.868 5.83v2.13h-3.72V7.55a7.523 7.523 0 00-2.737-5.801c.194-.02.39-.03.589-.03zm-2.72.664c1.871.976 3.15 2.926 3.15 5.167v2.13h-6.298V7.55c0-2.241 1.279-4.19 3.149-5.167zM8.058 7.55c0-3.215 2.632-5.831 5.868-5.831.198 0 .395.01.589.029a7.523 7.523 0 00-2.737 5.802v2.13h-3.72V7.55zM5.479 42.28H4.265a2.362 2.362 0 01-2.363-2.357V11.398H5.48v30.883z" fill="#020288"/><path d="M38.453 44H25.91a3.364 3.364 0 01-3.364-3.364V24.872h19.27v15.764A3.364 3.364 0 0138.453 44z" fill="#9AF4BE"/><path d="M35.865 29.987a.86.86 0 01-.86-.86v-4.763c0-1.55-1.272-2.811-2.837-2.811-1.565 0-2.838 1.26-2.838 2.81v4.765a.86.86 0 01-1.719 0v-4.764c0-2.498 2.044-4.53 4.557-4.53 2.512 0 4.556 2.032 4.556 4.53v4.764a.86.86 0 01-.859.859z" fill="#020288"/></svg>
